X:6209
T:SPINDLE SHANKS(D)
O:england
M:4/4
L:1/8
K:D
~F3 EA FDDE|(3FED) AG FDDE|F2 EA FDDE|(3FGA) Bc d2 BA|
~F3 EA FDDE|(3FED) AG FDDE|F2 EA FDDE|(3FGA) Bc d2 cd|
~e3d efed|cdef g2 fg|~e3d efed|cABc d2 cd|
~e3d efed|cdef g2 fg|a~f3 g~e3|dfec dBAG|


